static/img/kroki/3a6289a8d578403c0401d5362ccf6933.svg

<?xml version="1.0" encoding="us-ascii" standalone="no"?><svg xmlns="http://www.w3.org/2000/svg" xmlns:xlink="http://www.w3.org/1999/xlink" contentStyleType="text/css" height="374px" preserveAspectRatio="none" style="width:749px;height:374px;" version="1.1" viewBox="0 0 749 374" width="749px" zoomAndPan="magnify"><defs/><g><!--class azure_machine_learning_environment_container_base--><g id="elem_azure_machine_learning_environment_container_base"><rect codeLine="23" fill="#3D176E" height="39.7891" id="azure_machine_learning_environment_container_base" rx="2.5" ry="2.5" style="stroke:#000D19;stroke-width:0.5;" width="500" x="242" y="167.79"/><ellipse cx="257" cy="187.6845" fill="#ADD1B2" rx="11" ry="11" style="stroke:#181818;stroke-width:1.0;"/><path d="M259.9688,193.3252 Q259.3906,193.622 258.75,193.7627 Q258.1094,193.9189 257.4063,193.9189 Q254.9063,193.9189 253.5781,192.2783 Q252.2656,190.622 252.2656,187.497 Q252.2656,184.372 253.5781,182.7158 Q254.9063,181.0595 257.4063,181.0595 Q258.1094,181.0595 258.75,181.2158 Q259.4063,181.372 259.9688,181.6689 L259.9688,184.3877 Q259.3438,183.8095 258.75,183.5439 Q258.1563,183.2627 257.5313,183.2627 Q256.1875,183.2627 255.5,184.3408 Q254.8125,185.4033 254.8125,187.497 Q254.8125,189.5908 255.5,190.6689 Q256.1875,191.7314 257.5313,191.7314 Q258.1563,191.7314 258.75,191.4658 Q259.3438,191.1845 259.9688,190.6064 L259.9688,193.3252 Z " fill="#000000"/><text fill="#D9B8FF" font-family="Helvetica" font-size="17" lengthAdjust="spacing" textLength="458" x="276" y="193.5698">azure_machine_learning_environment_container_base</text></g><!--class azure_machine_learning_registry_environment_container--><g id="elem_azure_machine_learning_registry_environment_container"><rect codeLine="26" fill="#3D176E" height="39.7891" id="azure_machine_learning_registry_environment_container" rx="2.5" ry="2.5" style="stroke:#000D19;stroke-width:0.5;" width="526" x="36" y="328.58"/><ellipse cx="51" cy="348.4745" fill="#ADD1B2" rx="11" ry="11" style="stroke:#181818;stroke-width:1.0;"/><path d="M53.9688,354.1152 Q53.3906,354.412 52.75,354.5527 Q52.1094,354.7089 51.4063,354.7089 Q48.9063,354.7089 47.5781,353.0683 Q46.2656,351.412 46.2656,348.287 Q46.2656,345.162 47.5781,343.5058 Q48.9063,341.8495 51.4063,341.8495 Q52.1094,341.8495 52.75,342.0058 Q53.4063,342.162 53.9688,342.4589 L53.9688,345.1777 Q53.3438,344.5995 52.75,344.3339 Q52.1563,344.0527 51.5313,344.0527 Q50.1875,344.0527 49.5,345.1308 Q48.8125,346.1933 48.8125,348.287 Q48.8125,350.3808 49.5,351.4589 Q50.1875,352.5214 51.5313,352.5214 Q52.1563,352.5214 52.75,352.2558 Q53.3438,351.9745 53.9688,351.3964 L53.9688,354.1152 Z " fill="#000000"/><text fill="#D9B8FF" font-family="Helvetica" font-size="17" lengthAdjust="spacing" textLength="484" x="70" y="354.3598">azure_machine_learning_registry_environment_container</text></g><!--class azure_proxy_resource--><g id="elem_azure_proxy_resource"><rect codeLine="29" fill="#3D176E" height="39.7891" id="azure_proxy_resource" rx="2.5" ry="2.5" style="stroke:#000D19;stroke-width:0.5;" width="224" x="380" y="7"/><ellipse cx="395" cy="26.8945" fill="#ADD1B2" rx="11" ry="11" style="stroke:#181818;stroke-width:1.0;"/><path d="M397.9688,32.5352 Q397.3906,32.832 396.75,32.9727 Q396.1094,33.1289 395.4063,33.1289 Q392.9063,33.1289 391.5781,31.4883 Q390.2656,29.832 390.2656,26.707 Q390.2656,23.582 391.5781,21.9258 Q392.9063,20.2695 395.4063,20.2695 Q396.1094,20.2695 396.75,20.4258 Q397.4063,20.582 397.9688,20.8789 L397.9688,23.5977 Q397.3438,23.0195 396.75,22.7539 Q396.1563,22.4727 395.5313,22.4727 Q394.1875,22.4727 393.5,23.5508 Q392.8125,24.6133 392.8125,26.707 Q392.8125,28.8008 393.5,29.8789 Q394.1875,30.9414 395.5313,30.9414 Q396.1563,30.9414 396.75,30.6758 Q397.3438,30.3945 397.9688,29.8164 L397.9688,32.5352 Z " fill="#000000"/><text fill="#D9B8FF" font-family="Helvetica" font-size="17" lengthAdjust="spacing" textLength="182" x="414" y="32.7798">azure_proxy_resource</text></g><!--class microsoft_resource--><g id="elem_microsoft_resource"><rect codeLine="32" fill="#3D176E" height="39.7891" id="microsoft_resource" rx="2.5" ry="2.5" style="stroke:#000D19;stroke-width:0.5;" width="200" x="7" y="167.79"/><ellipse cx="22" cy="187.6845" fill="#ADD1B2" rx="11" ry="11" style="stroke:#181818;stroke-width:1.0;"/><path d="M24.9688,193.3252 Q24.3906,193.622 23.75,193.7627 Q23.1094,193.9189 22.4063,193.9189 Q19.9063,193.9189 18.5781,192.2783 Q17.2656,190.622 17.2656,187.497 Q17.2656,184.372 18.5781,182.7158 Q19.9063,181.0595 22.4063,181.0595 Q23.1094,181.0595 23.75,181.2158 Q24.4063,181.372 24.9688,181.6689 L24.9688,184.3877 Q24.3438,183.8095 23.75,183.5439 Q23.1563,183.2627 22.5313,183.2627 Q21.1875,183.2627 20.5,184.3408 Q19.8125,185.4033 19.8125,187.497 Q19.8125,189.5908 20.5,190.6689 Q21.1875,191.7314 22.5313,191.7314 Q23.1563,191.7314 23.75,191.4658 Q24.3438,191.1845 24.9688,190.6064 L24.9688,193.3252 Z " fill="#000000"/><text fill="#D9B8FF" font-family="Helvetica" font-size="17" lengthAdjust="spacing" textLength="158" x="41" y="193.5698">microsoft_resource</text></g><!--class resource--><g id="elem_resource"><rect codeLine="35" fill="#3D176E" height="39.7891" id="resource" rx="2.5" ry="2.5" style="stroke:#000D19;stroke-width:0.5;" width="113" x="50.5" y="7"/><ellipse cx="65.5" cy="26.8945" fill="#ADD1B2" rx="11" ry="11" style="stroke:#181818;stroke-width:1.0;"/><path d="M68.4688,32.5352 Q67.8906,32.832 67.25,32.9727 Q66.6094,33.1289 65.9063,33.1289 Q63.4063,33.1289 62.0781,31.4883 Q60.7656,29.832 60.7656,26.707 Q60.7656,23.582 62.0781,21.9258 Q63.4063,20.2695 65.9063,20.2695 Q66.6094,20.2695 67.25,20.4258 Q67.9063,20.582 68.4688,20.8789 L68.4688,23.5977 Q67.8438,23.0195 67.25,22.7539 Q66.6563,22.4727 66.0313,22.4727 Q64.6875,22.4727 64,23.5508 Q63.3125,24.6133 63.3125,26.707 Q63.3125,28.8008 64,29.8789 Q64.6875,30.9414 66.0313,30.9414 Q66.6563,30.9414 67.25,30.6758 Q67.8438,30.3945 68.4688,29.8164 L68.4688,32.5352 Z " fill="#000000"/><text fill="#D9B8FF" font-family="Helvetica" font-size="17" lengthAdjust="spacing" textLength="71" x="84.5" y="32.7798">resource</text></g><!--reverse link azure_proxy_resource to azure_machine_learning_environment_container_base--><g id="link_azure_proxy_resource_azure_machine_learning_environment_container_base"><path codeLine="38" d="M492,65.05 C492,95.57 492,136.9 492,167.46 " fill="none" id="azure_proxy_resource-backto-azure_machine_learning_environment_container_base" style="stroke:#FFAF37;stroke-width:2.0;"/><polygon fill="none" points="492,47.05,486,65.05,498,65.05,492,47.05" style="stroke:#FFAF37;stroke-width:2.0;"/></g><!--reverse link azure_machine_learning_environment_container_base to azure_machine_learning_registry_environment_container--><g id="link_azure_machine_learning_environment_container_base_azure_machine_learning_registry_environment_container"><path codeLine="39" d="M454.8192,219.2754 C417.7192,249.7954 359.51,297.69 322.36,328.25 " fill="none" id="azure_machine_learning_environment_container_base-backto-azure_machine_learning_registry_environment_container" style="stroke:#FFAF37;stroke-width:2.0;"/><polygon fill="none" points="468.72,207.84,451.0074,214.6418,458.631,223.909,468.72,207.84" style="stroke:#FFAF37;stroke-width:2.0;"/></g><!--reverse link microsoft_resource to azure_machine_learning_registry_environment_container--><g id="link_microsoft_resource_azure_machine_learning_registry_environment_container"><path codeLine="40" d="M144.0304,219.3122 C180.9304,249.8322 238.8,297.69 275.76,328.25 " fill="none" id="microsoft_resource-backto-azure_machine_learning_registry_environment_container" style="stroke:#FFAF37;stroke-width:2.0;"/><polygon fill="none" points="130.16,207.84,140.2063,223.9357,147.8545,214.6887,130.16,207.84" style="stroke:#FFAF37;stroke-width:2.0;"/></g><!--reverse link resource to microsoft_resource--><g id="link_resource_microsoft_resource"><path codeLine="41" d="M107,65.05 C107,95.57 107,136.9 107,167.46 " fill="none" id="resource-backto-microsoft_resource" style="stroke:#FFAF37;stroke-width:2.0;"/><polygon fill="none" points="107,47.05,101,65.05,113,65.05,107,47.05" style="stroke:#FFAF37;stroke-width:2.0;"/></g><!--SRC=[fP9HJy8m58NVzokQy4m24WKINu34w0inuljorzwoXhLTRZjmgF_T8MhADaQ8h_TyFUUUcwPA84ET-v9fr0cIYzn6cHm8D9iHsTt2PfPOJqgGet5TVB36NmIMe94zOhP5hpZKYTTKyOr1vzXD8Cs1RzPa2oEEzfx0k4f2umDgaO5pC-z99ON7O1anJIPIricwQMyaXkCxR62M1D8FCXWCn71QHov6TVR-8rPgZsmO7crfFJRMR4HyKvrR7eXWoKRHN_tiZiyWX39hTXlCNeuxaK4wcQzI47Pte2LaBenn7WcjBtDSD5hXT2Bak1L-EWT7_70w1lk2CDR0KsKmpX38LEancgqYQtJrIM9UbODAfJW1X-mzYZwx7nEkbVDKjhiq3NAoRsNrojc2-4c0LfoiizAtggUpLg_xZtw_Vtt9wFgpT2PrNoHggVaVkvf9qptw0W00]--></g></svg>

<svg xmlns="http://www.w3.org/2000/svg" width="749" height="374" viewBox="0 0 749 374"><rect width="500" height="39.789" x="242" y="167.79" fill="#3D176E" rx="2.5" ry="2.5" style="stroke:#000d19;stroke-width:.5"/><circle cx="257" cy="187.685" r="11" fill="#ADD1B2" style="stroke:#181818;stroke-width:1"/><path d="M259.969 193.325q-.578.297-1.219.438-.64.156-1.344.156-2.5 0-3.828-1.64-1.312-1.657-1.312-4.782t1.312-4.781q1.328-1.656 3.828-1.656.703 0 1.344.156.656.156 1.219.453v2.719q-.625-.578-1.219-.844-.594-.281-1.219-.281-1.344 0-2.031 1.078-.687 1.062-.687 3.156t.687 3.172q.688 1.062 2.031 1.062.625 0 1.219-.265.594-.281 1.219-.86z"/><text x="276" y="193.57" fill="#D9B8FF" font-family="Helvetica" font-size="17" textLength="458">azure_machine_learning_environment_container_base</text><rect width="526" height="39.789" x="36" y="328.58" fill="#3D176E" rx="2.5" ry="2.5" style="stroke:#000d19;stroke-width:.5"/><circle cx="51" cy="348.474" r="11" fill="#ADD1B2" style="stroke:#181818;stroke-width:1"/><path d="M53.969 354.115q-.578.297-1.219.438-.64.156-1.344.156-2.5 0-3.828-1.64-1.312-1.657-1.312-4.782t1.312-4.781q1.328-1.656 3.828-1.656.703 0 1.344.156.656.156 1.219.453v2.719q-.625-.579-1.219-.844-.594-.281-1.219-.281-1.343 0-2.031 1.078-.687 1.062-.687 3.156t.687 3.172q.688 1.062 2.031 1.062.625 0 1.219-.265.594-.281 1.219-.86z"/><text x="70" y="354.36" fill="#D9B8FF" font-family="Helvetica" font-size="17" textLength="484">azure_machine_learning_registry_environment_container</text><rect width="224" height="39.789" x="380" y="7" fill="#3D176E" rx="2.5" ry="2.5" style="stroke:#000d19;stroke-width:.5"/><circle cx="395" cy="26.895" r="11" fill="#ADD1B2" style="stroke:#181818;stroke-width:1"/><path d="M397.969 32.535q-.578.297-1.219.438-.64.156-1.344.156-2.5 0-3.828-1.64-1.312-1.657-1.312-4.782t1.312-4.781q1.328-1.656 3.828-1.656.703 0 1.344.156.656.156 1.219.453v2.719q-.625-.578-1.219-.844-.594-.281-1.219-.281-1.344 0-2.031 1.078-.687 1.062-.687 3.156t.687 3.172q.688 1.062 2.031 1.062.625 0 1.219-.265.594-.281 1.219-.86z"/><text x="414" y="32.78" fill="#D9B8FF" font-family="Helvetica" font-size="17" textLength="182">azure_proxy_resource</text><rect width="200" height="39.789" x="7" y="167.79" fill="#3D176E" rx="2.5" ry="2.5" style="stroke:#000d19;stroke-width:.5"/><circle cx="22" cy="187.685" r="11" fill="#ADD1B2" style="stroke:#181818;stroke-width:1"/><path d="M24.969 193.325q-.578.297-1.219.438-.64.156-1.344.156-2.5 0-3.828-1.64-1.312-1.657-1.312-4.782t1.312-4.781q1.328-1.656 3.828-1.656.703 0 1.344.156.656.156 1.219.453v2.719q-.625-.578-1.219-.844-.594-.281-1.219-.281-1.343 0-2.031 1.078-.687 1.062-.687 3.156t.687 3.172q.688 1.062 2.031 1.062.625 0 1.219-.265.594-.281 1.219-.86z"/><text x="41" y="193.57" fill="#D9B8FF" font-family="Helvetica" font-size="17" textLength="158">microsoft_resource</text><rect width="113" height="39.789" x="50.5" y="7" fill="#3D176E" rx="2.5" ry="2.5" style="stroke:#000d19;stroke-width:.5"/><circle cx="65.5" cy="26.895" r="11" fill="#ADD1B2" style="stroke:#181818;stroke-width:1"/><path d="M68.469 32.535q-.578.297-1.219.438-.64.156-1.344.156-2.5 0-3.828-1.64-1.312-1.657-1.312-4.782t1.312-4.781q1.328-1.656 3.828-1.656.703 0 1.344.156.656.156 1.219.453v2.719q-.625-.578-1.219-.844-.594-.281-1.219-.281-1.344 0-2.031 1.078-.687 1.062-.687 3.156T64 29.879q.688 1.062 2.031 1.062.625 0 1.219-.265.594-.281 1.219-.86z"/><text x="84.5" y="32.78" fill="#D9B8FF" font-family="Helvetica" font-size="17" textLength="71">resource</text><path fill="none" d="M492 65.05v102.41m0-120.41-6 18h12z" style="stroke:#ffaf37;stroke-width:2"/><g fill="none"><path d="M454.82 219.275c-37.1 30.52-95.31 78.415-132.46 108.975" style="stroke:#ffaf37;stroke-width:2"/><path d="m468.72 207.84-17.713 6.802 7.624 9.267z" style="stroke:#ffaf37;stroke-width:2"/></g><g fill="none"><path d="M144.03 219.312c36.9 30.52 94.77 78.378 131.73 108.938" style="stroke:#ffaf37;stroke-width:2"/><path d="m130.16 207.84 10.046 16.096 7.649-9.247z" style="stroke:#ffaf37;stroke-width:2"/></g><path fill="none" d="M107 65.05v102.41m0-120.41-6 18h12z" style="stroke:#ffaf37;stroke-width:2"/></svg>
